X:1
T:Title
%%score { ( 1 3 ) | ( 2 4 5 ) }
L:1/8
M:4/4
K:Eb
V:1 treble nm="Grand Piano"
V:3 treble 
V:2 bass 
V:4 bass 
V:5 bass 
V:1
 z4 z2[Q:1/4=100] B,>B, | E2 G2 [_Gc]2 [CG=A]2 | [GB]6 [GB]>[GB] | [Ge]2 [Gd]2 [Gc]2 [B,EG]2 | %4
[M:3/4] [B,DA]6 |[M:1/4] [DA]>[DA] |[M:4/4] [Dd]2 [Dc]2 [DB]2 [DA]2 | [EG]2 [_Gc]2 [B,=GB]2 G>G | %8
 F2 Bd c2 d2 |[M:3/4] [B,B]-[B,-AB-] [B,FB-]2 [B,B]2 |[M:1/4] z2 | %11
[M:4/4][K:bass] [E,G,B,E]2 [E,A,C]2 [E,G,B,E]2 [E,A,C]2 | %12
 [E,G,B,E]2 [E,G,B,E]2[K:treble] [B,EG]2 [B,EG]2 | [F,B,DF]2 [F,B,EG]2 =A>A c>d | %14
[M:3/4] [E=Ac]4 [DFB]2 |[M:1/4] (3Bcd |[M:4/4] [Ge]2 [CAc]2 [Ge]2 [CAc]2 | %17
 e>d [Ge]>[Ac] [GB]2 B>B | =A>A B>B c>c [Ge]>[Fd] |[M:3/4] [Ec]4 [B,DB]2 |[M:1/4] z2 | %21
[M:4/4] z2 a2 z4 | [Ge]2 c'>d' [ge']2 [Ac]>[Ac] | [GB]>G E>F G2 [EF]>[EG] | %24
[M:7/8] [DF]- [DF]3 [B,E]3 |] %25
V:2
 z4 z2 [E,G,]>[E,G,] | [E,G,B,]2 [E,B,E]2 [E,=A,]2 E,2 | z2 .G,2 E2 [E,E]>[E,E] | %3
 [E,B,]2 [E,B,]2 [E,B,]2 E,2 |[M:3/4] z2 D,F, B,,2 |[M:1/4] [B,,B,]>[B,,B,] | %6
[M:4/4] [B,,F,]2 [B,,F,]2 [B,,F,]2 [B,,B,]2 | B,2 =A,2 E,2 [E,B,E]>[E,B,E] | %8
 [F,B,D]2 [F,B,D]2 [F,=A,E]2 [F,A,F]2 |[M:3/4] z A, F,D, B,,2 |[M:1/4] (3B,CD | %11
[M:4/4] E,,2 z z/ D/ E,,2 z z/ D/ | z z/ D/ z z/ F/ [E,,E,]2 z z/ G/ | %13
 z z/ F/ z z/ G/ [F,,F,]2 [F,,F,]2 |[M:3/4] [F,,F,]4 [B,,F,]2 |[M:1/4] z2 | %16
[M:4/4] [E,B,]2 z z/[K:treble] d/[K:bass] [E,B,]2 z z/[K:treble] d/ | %17
 [E,B,]2 [E,B,]2 [E,E]2 [E,E]2 | [F,CE]2 [F,B,D]2 [F,=A,E]2 [F,A,]2 |[M:3/4] [F,=A,]4 B,,2 | %20
[M:1/4][K:treble] (3Bcd |[M:4/4][K:bass] [E,B,]2 [E,C]2 [E,B,]2 z2 | %22
 [E,B,]2 [E,C]2 [E,B,]2 [E,E]>[E,E] | [E,E]>[E,B,E] [E,G,]>[E,A,E] [E,B,E]2 [C,=A,]>[C,A,] | %24
[M:7/8] [B,,A,]- [B,,A,]3 [E,G,]3 |] %25
V:3
 x8 | x8 | B,4 z4 | x8 |[M:3/4] x6 |[M:1/4] x2 |[M:4/4] x8 | x8 | x8 |[M:3/4] D3 D3 |[M:1/4] x2 | %11
[M:4/4][K:bass] x8 | x4[K:treble] x4 | z4 [CE]2 [E=A]2 |[M:3/4] x6 |[M:1/4] x2 |[M:4/4] x8 | %17
 G2 z2 z2 G2 | x8 |[M:3/4] x6 |[M:1/4] x2 |[M:4/4] [Ge]2 c'>d' [ge']2 (3Bcd | x8 | x8 | %24
[M:7/8] x7 |] %25
V:4
 x8 | x8 | z2 z B,- B,2 z2 | x8 |[M:3/4] B,,4 z2 |[M:1/4] x2 |[M:4/4] x8 | E,4 z4 | x8 | %9
[M:3/4] B,,4 z2 |[M:1/4] x2 |[M:4/4] z2 A,,2 z2 A,,2 | E,,2 E,,2 z2 [E,,E,]2 | F,,2 F,,2 z4 | %14
[M:3/4] x6 |[M:1/4] x2 |[M:4/4] z2 E,2[K:treble][K:bass] z2 E,2[K:treble] | x8 | x8 |[M:3/4] x6 | %20
[M:1/4][K:treble] x2 |[M:4/4][K:bass] x8 | x8 | x8 |[M:7/8] x7 |] %25
V:5
 x8 | x8 | E,6 z2 | x8 |[M:3/4] x6 |[M:1/4] x2 |[M:4/4] x8 | x8 | x8 |[M:3/4] x6 |[M:1/4] x2 | %11
[M:4/4] x8 | x8 | x8 |[M:3/4] x6 |[M:1/4] x2 |[M:4/4] x7/2[K:treble] x/[K:bass] x7/2[K:treble] x/ | %17
 x8 | x8 |[M:3/4] x6 |[M:1/4][K:treble] x2 |[M:4/4][K:bass] x8 | x8 | x8 |[M:7/8] x7 |] %25

